X:70
T:Duke of Glosester’s March.2voices RH.070
R:March
S:Rev.R.Harrison’s MS,c1815,Cumbria
O:England
A:Temple Sowerby,Cumbria
Z:vmp.Simon Wilson. Review PJH, 2008.
M:C|
L:1/8
Q:1/2=60
K:C
[V:1]|:ef|g>ec>c c3e|d>cB>A G>FE>D|EGc_B Afdc|B2G>G G2e>f|
[V:2]|:cd|e>ge>e e3g|f2d2 B2G2|CEGD FdBA|G2E>E E2cd|
%
[V:1] g>ec>c c3e|d>cB>A G>FE>D|EGc_B Afd=B|c2c>c c2:|
[V:2] e>ge>e e3g|f2d2 B2G2|CEAD FdBG|E2E>E E2:|
%
[V:1]|:e>f|g>fg>a a>ga>b|a>gf>e f2a>g|a>gf>e dcBA|BcBA GFED|
[V:2]|:z2|edef gefg|fedc d2f2|f2d2 BAGF|GAGF E2C2|
%
[V:1] EGcG FAdA|BdgB cege|afaf edcB|c2c>c c2:|
[V:2] GBAB AFDF|GBed e2c2|fdfd cBAG|E2E>E E2:|

